X:8
T:Spanish Dance. ASH.08
M:2/4
L:1/16
Q:1/4=100
S:Harrison & Wall MS,Ashover,Derbyshire,1762-75
R:.Reel
O:England
A:Derbyshire
N:Bar 3, 3rd Strain,first two "F" s should be broken rythm,but nasty abc
N:wouldn't allow.Cont.
Z:vmp.Mick Peat, 2003
K:D
DAFA DBGB | D2ef gff[Ae] | DAFA Defg | fedc {c} d4 :|!
|:ecAg fdAa | ecAg [d/f/]4eA | afdA BcdG | F2E2 D4:|!
|:ABcd dcBA | efgf f2e2 |"^NB" f3f e^GAB | cBA^G {G}A4:|!
|:e3c  A2d2 | BAGF {F}E4 | Begf ecdg | fedc {c}d4:|

